X: 2762
T: Banks Of The Quay, The
R: polka
M: 2/4
K: Gmajor
DG ~B2|cA B2|BA/G/ FG|AG FE|
DG ~B2|cA B2|BA/G/ FG|AG G2:|
d2 d>g|ed d>B|AG FG|AG GB/c/|
d2 d>d|ed d>B|AG FG|AG G2|
d2 d>g|ed d>B|AG FG|AG FE|
DG ~B2|cA B2|BA/G/ FG|AG G2||

